assets/svg/tv-o.svg

<?xml version="1.0" encoding="UTF-8"?>
<svg width="1000px" height="1000px" viewBox="0 0 1000 1000" version="1.1" xmlns="http://www.w3.org/2000/svg" xmlns:xlink="http://www.w3.org/1999/xlink">
    <!-- Generator: sketchtool 52.4 (67378) - http://www.bohemiancoding.com/sketch -->
    <title>tv-o</title>
    <desc>Created with sketchtool.</desc>
    <g id="新版图标" stroke="none" stroke-width="1" fill="none" fill-rule="evenodd">
        <g id="tv-o" fill="#251714">
            <g id="直角-视频教程-线">
                <path d="M166.666667,111.111111 L833.333333,111.111111 C864.055556,111.111111 888.888889,135.944444 888.888889,166.666667 L888.888889,666.666667 C888.888889,697.388889 864.055556,722.222222 833.333333,722.222222 L527.777778,722.222222 L527.777778,833.333333 L722.222222,833.333333 L722.222222,888.888889 L277.777778,888.888889 L277.777778,833.333333 L472.222222,833.333333 L472.222222,722.222222 L166.666667,722.222222 C135.944444,722.222222 111.111111,697.388889 111.111111,666.666667 L111.111111,166.666667 C111.111111,135.944444 135.944444,111.111111 166.666667,111.111111 Z M166.666667,666.666667 L833.333333,666.666667 L833.333333,166.666667 L166.666667,166.666667 L166.666667,666.666667 Z M423.016667,543.022222 C421.016667,544.188889 418.461111,543.633333 417.238889,541.633333 C416.905556,540.966667 416.683333,540.244444 416.683333,539.522222 L416.683333,293.855556 C416.683333,291.577778 418.516667,289.688889 420.85,289.688889 C421.627778,289.688889 422.35,289.855556 423.016667,290.3 L625.461111,413.077778 C627.405556,414.3 627.961111,416.855556 626.794444,418.855556 C626.461111,419.355556 625.961111,419.855556 625.461111,420.244444 L423.016667,543.022222 Z" id="Fill-3"></path>
            </g>
        </g>
    </g>
</svg>

<svg width="1000" height="1000" xmlns="http://www.w3.org/2000/svg"><path d="M166.667 111.111h666.666c30.723 0 55.556 24.833 55.556 55.556v500c0 30.722-24.833 55.555-55.556 55.555H527.778v111.111h194.444v55.556H277.778v-55.556h194.444v-111.11H166.667c-30.723 0-55.556-24.834-55.556-55.556v-500c0-30.723 24.833-55.556 55.556-55.556zm0 555.556h666.666v-500H166.667v500zm256.35-123.645c-2 1.167-4.556.611-5.778-1.389-.333-.666-.556-1.389-.556-2.11V293.855a4.161 4.161 0 0 1 4.167-4.167c.778 0 1.5.167 2.167.611L625.46 413.078c1.945 1.222 2.5 3.778 1.333 5.778-.333.5-.833 1-1.333 1.388L423.017 543.022z" fill="#251714" fill-rule="evenodd"/></svg>
